static/img/kroki/7f5ed36946fb89019be6b713ad4f23d1.svg

<?xml version="1.0" encoding="us-ascii" standalone="no"?><svg xmlns="http://www.w3.org/2000/svg" xmlns:xlink="http://www.w3.org/1999/xlink" contentStyleType="text/css" height="535px" preserveAspectRatio="none" style="width:331px;height:535px;" version="1.1" viewBox="0 0 331 535" width="331px" zoomAndPan="magnify"><defs/><g><!--class aws_resource--><g id="elem_aws_resource"><rect codeLine="23" fill="#3D176E" height="39.7891" id="aws_resource" rx="2.5" ry="2.5" style="stroke:#000D19;stroke-width:0.5;" width="155" x="88" y="167.79"/><ellipse cx="103" cy="187.6845" fill="#ADD1B2" rx="11" ry="11" style="stroke:#181818;stroke-width:1.0;"/><path d="M105.9688,193.3252 Q105.3906,193.622 104.75,193.7627 Q104.1094,193.9189 103.4063,193.9189 Q100.9063,193.9189 99.5781,192.2783 Q98.2656,190.622 98.2656,187.497 Q98.2656,184.372 99.5781,182.7158 Q100.9063,181.0595 103.4063,181.0595 Q104.1094,181.0595 104.75,181.2158 Q105.4063,181.372 105.9688,181.6689 L105.9688,184.3877 Q105.3438,183.8095 104.75,183.5439 Q104.1563,183.2627 103.5313,183.2627 Q102.1875,183.2627 101.5,184.3408 Q100.8125,185.4033 100.8125,187.497 Q100.8125,189.5908 101.5,190.6689 Q102.1875,191.7314 103.5313,191.7314 Q104.1563,191.7314 104.75,191.4658 Q105.3438,191.1845 105.9688,190.6064 L105.9688,193.3252 Z " fill="#000000"/><text fill="#D9B8FF" font-family="Helvetica" font-size="17" lengthAdjust="spacing" textLength="113" x="122" y="193.5698">aws_resource</text></g><!--class aws_sagemaker_compilation_job--><g id="elem_aws_sagemaker_compilation_job"><rect codeLine="26" fill="#3D176E" height="39.7891" id="aws_sagemaker_compilation_job" rx="2.5" ry="2.5" style="stroke:#000D19;stroke-width:0.5;" width="317" x="7" y="489.37"/><ellipse cx="22" cy="509.2645" fill="#ADD1B2" rx="11" ry="11" style="stroke:#181818;stroke-width:1.0;"/><path d="M24.9688,514.9052 Q24.3906,515.202 23.75,515.3427 Q23.1094,515.4989 22.4063,515.4989 Q19.9063,515.4989 18.5781,513.8583 Q17.2656,512.202 17.2656,509.077 Q17.2656,505.952 18.5781,504.2958 Q19.9063,502.6395 22.4063,502.6395 Q23.1094,502.6395 23.75,502.7958 Q24.4063,502.952 24.9688,503.2489 L24.9688,505.9677 Q24.3438,505.3895 23.75,505.1239 Q23.1563,504.8427 22.5313,504.8427 Q21.1875,504.8427 20.5,505.9208 Q19.8125,506.9833 19.8125,509.077 Q19.8125,511.1708 20.5,512.2489 Q21.1875,513.3114 22.5313,513.3114 Q23.1563,513.3114 23.75,513.0458 Q24.3438,512.7645 24.9688,512.1864 L24.9688,514.9052 Z " fill="#000000"/><text fill="#D9B8FF" font-family="Helvetica" font-size="17" lengthAdjust="spacing" textLength="275" x="41" y="515.1498">aws_sagemaker_compilation_job</text></g><!--class aws_sagemaker_job--><g id="elem_aws_sagemaker_job"><rect codeLine="29" fill="#3D176E" height="39.7891" id="aws_sagemaker_job" rx="2.5" ry="2.5" style="stroke:#000D19;stroke-width:0.5;" width="210" x="60.5" y="328.58"/><ellipse cx="75.5" cy="348.4745" fill="#ADD1B2" rx="11" ry="11" style="stroke:#181818;stroke-width:1.0;"/><path d="M78.4688,354.1152 Q77.8906,354.412 77.25,354.5527 Q76.6094,354.7089 75.9063,354.7089 Q73.4063,354.7089 72.0781,353.0683 Q70.7656,351.412 70.7656,348.287 Q70.7656,345.162 72.0781,343.5058 Q73.4063,341.8495 75.9063,341.8495 Q76.6094,341.8495 77.25,342.0058 Q77.9063,342.162 78.4688,342.4589 L78.4688,345.1777 Q77.8438,344.5995 77.25,344.3339 Q76.6563,344.0527 76.0313,344.0527 Q74.6875,344.0527 74,345.1308 Q73.3125,346.1933 73.3125,348.287 Q73.3125,350.3808 74,351.4589 Q74.6875,352.5214 76.0313,352.5214 Q76.6563,352.5214 77.25,352.2558 Q77.8438,351.9745 78.4688,351.3964 L78.4688,354.1152 Z " fill="#000000"/><text fill="#D9B8FF" font-family="Helvetica" font-size="17" lengthAdjust="spacing" textLength="168" x="94.5" y="354.3598">aws_sagemaker_job</text></g><!--class resource--><g id="elem_resource"><rect codeLine="32" fill="#3D176E" height="39.7891" id="resource" rx="2.5" ry="2.5" style="stroke:#000D19;stroke-width:0.5;" width="113" x="109" y="7"/><ellipse cx="124" cy="26.8945" fill="#ADD1B2" rx="11" ry="11" style="stroke:#181818;stroke-width:1.0;"/><path d="M126.9688,32.5352 Q126.3906,32.832 125.75,32.9727 Q125.1094,33.1289 124.4063,33.1289 Q121.9063,33.1289 120.5781,31.4883 Q119.2656,29.832 119.2656,26.707 Q119.2656,23.582 120.5781,21.9258 Q121.9063,20.2695 124.4063,20.2695 Q125.1094,20.2695 125.75,20.4258 Q126.4063,20.582 126.9688,20.8789 L126.9688,23.5977 Q126.3438,23.0195 125.75,22.7539 Q125.1563,22.4727 124.5313,22.4727 Q123.1875,22.4727 122.5,23.5508 Q121.8125,24.6133 121.8125,26.707 Q121.8125,28.8008 122.5,29.8789 Q123.1875,30.9414 124.5313,30.9414 Q125.1563,30.9414 125.75,30.6758 Q126.3438,30.3945 126.9688,29.8164 L126.9688,32.5352 Z " fill="#000000"/><text fill="#D9B8FF" font-family="Helvetica" font-size="17" lengthAdjust="spacing" textLength="71" x="143" y="32.7798">resource</text></g><!--reverse link resource to aws_resource--><g id="link_resource_aws_resource"><path codeLine="35" d="M165.5,65.05 C165.5,95.57 165.5,136.9 165.5,167.47 " fill="none" id="resource-backto-aws_resource" style="stroke:#FFAF37;stroke-width:2.0;"/><polygon fill="none" points="165.5,47.05,159.5,65.05,171.5,65.05,165.5,47.05" style="stroke:#FFAF37;stroke-width:2.0;"/></g><!--reverse link aws_sagemaker_job to aws_sagemaker_compilation_job--><g id="link_aws_sagemaker_job_aws_sagemaker_compilation_job"><path codeLine="36" d="M165.5,386.63 C165.5,417.15 165.5,458.48 165.5,489.04 " fill="none" id="aws_sagemaker_job-backto-aws_sagemaker_compilation_job" style="stroke:#FFAF37;stroke-width:2.0;"/><polygon fill="none" points="165.5,368.63,159.5,386.63,171.5,386.63,165.5,368.63" style="stroke:#FFAF37;stroke-width:2.0;"/></g><!--reverse link aws_resource to aws_sagemaker_job--><g id="link_aws_resource_aws_sagemaker_job"><path codeLine="37" d="M165.5,225.84 C165.5,256.36 165.5,297.69 165.5,328.25 " fill="none" id="aws_resource-backto-aws_sagemaker_job" style="stroke:#FFAF37;stroke-width:2.0;"/><polygon fill="none" points="165.5,207.84,159.5,225.84,171.5,225.84,165.5,207.84" style="stroke:#FFAF37;stroke-width:2.0;"/></g><!--SRC=[XP3DRi8m48JlUGfBd952KHkGUe58LNj1LUaTRU8rk8czqTeKqPztRrDQwYG4ZjxvF3Ex6orHeAdyNXWq6RABNA5j1Gn6p9Xfbr99B0PAWHedRV6EhBy8BC2WkCVo5RtEeKqyRtHUM7HEN0NI7F9YpRIryc3l6Qpxbj3wW4fBS6xcFUjiwp4e8wVPHAassJOTZEKekS4EHYoHVv4uZkLesaOkHftT-qWizHkAKNYq1NdirEn4_51dMzP4KBApw9_Us_4HfDHsBQw3sTEX4rlandov0KcxcbPGkZ36UMGalwymxMo5qubKoKdueG-Eylfq0dPknUXeopcAzoZw3EOErcYWG5xbP2fTWjTaLo-KzOCjiUbyVDr-38V3HdJKjVc7Udj4ZVQdFjJG5m00]--></g></svg>

<svg xmlns="http://www.w3.org/2000/svg" width="331" height="535" viewBox="0 0 331 535"><rect width="155" height="39.789" x="88" y="167.79" fill="#3D176E" rx="2.5" ry="2.5" style="stroke:#000d19;stroke-width:.5"/><circle cx="103" cy="187.685" r="11" fill="#ADD1B2" style="stroke:#181818;stroke-width:1"/><path d="M105.969 193.325q-.578.297-1.219.438-.64.156-1.344.156-2.5 0-3.828-1.64-1.312-1.657-1.312-4.782t1.312-4.781q1.328-1.656 3.828-1.656.703 0 1.344.156.656.156 1.219.453v2.719q-.625-.578-1.219-.844-.594-.281-1.219-.281-1.344 0-2.031 1.078-.687 1.062-.687 3.156t.687 3.172q.688 1.062 2.031 1.062.625 0 1.219-.265.594-.281 1.219-.86z"/><text x="122" y="193.57" fill="#D9B8FF" font-family="Helvetica" font-size="17" textLength="113">aws_resource</text><rect width="317" height="39.789" x="7" y="489.37" fill="#3D176E" rx="2.5" ry="2.5" style="stroke:#000d19;stroke-width:.5"/><circle cx="22" cy="509.264" r="11" fill="#ADD1B2" style="stroke:#181818;stroke-width:1"/><path d="M24.969 514.905q-.578.297-1.219.438-.64.156-1.344.156-2.5 0-3.828-1.64-1.312-1.657-1.312-4.782t1.312-4.781q1.328-1.656 3.828-1.656.703 0 1.344.156.656.156 1.219.453v2.719q-.625-.579-1.219-.844-.594-.281-1.219-.281-1.343 0-2.031 1.078-.687 1.062-.687 3.156t.687 3.172q.688 1.062 2.031 1.062.625 0 1.219-.265.594-.282 1.219-.86z"/><text x="41" y="515.15" fill="#D9B8FF" font-family="Helvetica" font-size="17" textLength="275">aws_sagemaker_compilation_job</text><rect width="210" height="39.789" x="60.5" y="328.58" fill="#3D176E" rx="2.5" ry="2.5" style="stroke:#000d19;stroke-width:.5"/><circle cx="75.5" cy="348.474" r="11" fill="#ADD1B2" style="stroke:#181818;stroke-width:1"/><path d="M78.469 354.115q-.578.297-1.219.438-.64.156-1.344.156-2.5 0-3.828-1.64-1.312-1.657-1.312-4.782t1.312-4.781q1.328-1.656 3.828-1.656.703 0 1.344.156.656.156 1.219.453v2.719q-.625-.579-1.219-.844-.594-.281-1.219-.281-1.344 0-2.031 1.078-.687 1.062-.687 3.156t.687 3.172q.688 1.062 2.031 1.062.625 0 1.219-.265.594-.281 1.219-.86z"/><text x="94.5" y="354.36" fill="#D9B8FF" font-family="Helvetica" font-size="17" textLength="168">aws_sagemaker_job</text><rect width="113" height="39.789" x="109" y="7" fill="#3D176E" rx="2.5" ry="2.5" style="stroke:#000d19;stroke-width:.5"/><circle cx="124" cy="26.895" r="11" fill="#ADD1B2" style="stroke:#181818;stroke-width:1"/><path d="M126.969 32.535q-.578.297-1.219.438-.64.156-1.344.156-2.5 0-3.828-1.64-1.312-1.657-1.312-4.782t1.312-4.781q1.328-1.656 3.828-1.656.703 0 1.344.156.656.156 1.219.453v2.719q-.625-.578-1.219-.844-.594-.281-1.219-.281-1.344 0-2.031 1.078-.687 1.062-.687 3.156t.687 3.172q.688 1.062 2.031 1.062.625 0 1.219-.265.594-.281 1.219-.86z"/><text x="143" y="32.78" fill="#D9B8FF" font-family="Helvetica" font-size="17" textLength="71">resource</text><path fill="none" d="M165.5 65.05v102.42m0-120.42-6 18h12zm0 339.58v102.41m0-120.41-6 18h12zm0-142.79v102.41m0-120.41-6 18h12z" style="stroke:#ffaf37;stroke-width:2"/></svg>
